packages/kaspersky-hexa-ui-icons/src/iconsSVGs/48/Vpn.svg

<svg xmlns="http://www.w3.org/2000/svg" width="48" height="48" fill="none" viewBox="0 0 48 48"><path fill="currentColor" fill-rule="evenodd" d="M33.9999 26c0-5.5229-4.4771-10-10-10s-10 4.4771-10 10v4h-4v18h28V30h-4zm-18 0c0-4.4183 3.5817-8 8-8s8 3.5817 8 8v4h-3v-4c0-2.7614-2.2386-5-5-5s-5 2.2386-5 5v4h-3zm11 4h-6v-4c0-1.6569 1.3431-3 3-3s3 1.3431 3 3zm9 2v14h-24V32zm-25.38-25.46L9.3999 5c8.6138-6.6022 20.5862-6.6022 29.2 0l-1.22 1.54c-7.8946-6.0486-18.8654-6.0486-26.76 0M23.9999 8a15.86 15.86 0 0 1 9.73 3.32l-1.22 1.58c-5.011-3.8551-11.989-3.8551-17 0l-1.22-1.58a15.86 15.86 0 0 1 9.71-3.32m-8.29 31 4.29-3.68v7.34zm12.29-3.68 4.29 3.68-4.29 3.66zm-2 3.68c0 1.1045-.8954 2-2 2s-2-.8955-2-2 .8954-2 2-2 2 .8954 2 2" clip-rule="evenodd"/></svg>

<svg width="48" height="48" viewBox="0 0 48 48" fill="none" xmlns="http://www.w3.org/2000/svg">
<path fill-rule="evenodd" clip-rule="evenodd" d="M33.9999 26C33.9999 20.4771 29.5228 16 23.9999 16C18.4771 16 13.9999 20.4771 13.9999 26V30H9.9999V48H37.9999V30H33.9999V26ZM15.9999 26C15.9999 21.5817 19.5816 18 23.9999 18C28.4182 18 31.9999 21.5817 31.9999 26V30H28.9999V26C28.9999 23.2386 26.7613 21 23.9999 21C21.2385 21 18.9999 23.2386 18.9999 26V30H15.9999V26ZM26.9999 30H20.9999V26C20.9999 24.3431 22.343 23 23.9999 23C25.6568 23 26.9999 24.3431 26.9999 26V30ZM35.9999 32V46H11.9999V32H35.9999ZM10.6199 6.53998L9.3999 4.99998C18.0137 -1.60221 29.9861 -1.60221 38.5999 4.99998L37.3799 6.53998C29.4853 0.491381 18.5145 0.491381 10.6199 6.53998ZM23.9999 7.99998C27.5219 7.99559 30.9452 9.16365 33.7299 11.32L32.5099 12.9C27.4989 9.0449 20.5209 9.0449 15.5099 12.9L14.2899 11.32C17.0692 9.16785 20.4848 8.00002 23.9999 7.99998ZM15.7099 39L19.9999 35.32V42.66L15.7099 39ZM27.9999 35.32L32.2899 39L27.9999 42.66V35.32ZM25.9999 39C25.9999 40.1045 25.1045 41 23.9999 41C22.8953 41 21.9999 40.1045 21.9999 39C21.9999 37.8954 22.8953 37 23.9999 37C25.1045 37 25.9999 37.8954 25.9999 39Z"  fill="currentColor"/>
</svg>
